svgs/thin/square-root-variable.svg

<svg xmlns="http://www.w3.org/2000/svg" viewBox="0 0 576 512"><!--! Font Awesome Pro 6.3.0 by @fontawesome - https://fontawesome.com License - https://fontawesome.com/license (Commercial License) Copyright 2023 Fonticons, Inc. --><path d="M565.7 234.3c-3.125-3.125-8.188-3.125-11.31 0L480 308.7l-74.34-74.34c-3.125-3.125-8.188-3.125-11.31 0s-3.125 8.188 0 11.31L468.7 320l-74.34 74.34c-3.125 3.125-3.125 8.188 0 11.31C395.9 407.2 397.9 408 400 408s4.094-.7813 5.656-2.344L480 331.3l74.34 74.34C555.9 407.2 557.9 408 560 408s4.094-.7813 5.656-2.344c3.125-3.125 3.125-8.188 0-11.31L491.3 320l74.34-74.34C568.8 242.5 568.8 237.5 565.7 234.3zM568 32h-169.9c-31.03 0-58.47 19.78-68.31 49.22L206.8 450.4L120.5 265.6C108.7 240.3 83.09 224 55.25 224H8C3.594 224 0 227.6 0 232S3.594 240 8 240h47.25c21.66 0 41.56 12.69 50.75 32.31l94.75 203.1C202.1 478.2 204.9 480 208 480h.4687c3.25-.1875 6.094-2.375 7.125-5.469L345 86.28C352.6 63.38 373.1 48 398.1 48H568C572.4 48 576 44.41 576 40S572.4 32 568 32z"/></svg>

<svg xmlns="http://www.w3.org/2000/svg" viewBox="0 0 576 512"><!-- Font Awesome Pro 6.0.0-alpha2 by @fontawesome - https://fontawesome.com License - https://fontawesome.com/license (Commercial License) --><path d="M565.656 234.344C562.531 231.219 557.469 231.219 554.344 234.344L480 308.688L405.656 234.344C402.531 231.219 397.469 231.219 394.344 234.344S391.219 242.531 394.344 245.656L468.688 320L394.344 394.344C391.219 397.469 391.219 402.531 394.344 405.656C395.906 407.219 397.938 408 400 408S404.094 407.219 405.656 405.656L480 331.312L554.344 405.656C555.906 407.219 557.938 408 560 408S564.094 407.219 565.656 405.656C568.781 402.531 568.781 397.469 565.656 394.344L491.312 320L565.656 245.656C568.781 242.531 568.781 237.469 565.656 234.344ZM568 32H398.125C367.094 32 339.656 51.781 329.812 81.219L206.75 450.438L120.5 265.562C108.688 240.312 83.094 224 55.25 224H8C3.594 224 0 227.594 0 232S3.594 240 8 240H55.25C76.906 240 96.812 252.688 106 272.312L200.75 475.375C202.062 478.219 204.906 480 208 480H208.469C211.719 479.812 214.562 477.625 215.594 474.531L345 86.281C352.625 63.375 374 48 398.125 48H568C572.406 48 576 44.406 576 40S572.406 32 568 32Z"/></svg>
